resources/META-INF/pluginIcon.svg

<svg id="Слой_1" data-name="Слой 1" xmlns="http://www.w3.org/2000/svg" xmlns:xlink="http://www.w3.org/1999/xlink" viewBox="0 0 98.1 97.59"><defs><style>.cls-1{opacity:0.25;}.cls-2,.cls-3,.cls-4,.cls-5,.cls-6{stroke:#404040;stroke-miterlimit:10;stroke-width:2px;}.cls-2{fill-rule:evenodd;fill:url(#Безымянный_градиент);}.cls-3{fill:url(#Безымянный_градиент_513);}.cls-4{fill:url(#Безымянный_градиент_558);}.cls-5{fill:url(#Безымянный_градиент_553);}.cls-6{fill:url(#Безымянный_градиент_547);}</style><linearGradient id="Безымянный_градиент" x1="0.05" y1="2011.96" x2="96.05" y2="2011.96" gradientTransform="translate(0.25 -1964)" gradientUnits="userSpaceOnUse"><stop offset="0" stop-color="#00a0db"/><stop offset="0.2" stop-color="#362983"/><stop offset="0.4" stop-color="#e4007d"/><stop offset="0.6" stop-color="#e31f21"/><stop offset="0.8" stop-color="#ffe900"/><stop offset="1" stop-color="#009447"/></linearGradient><linearGradient id="Безымянный_градиент_513" y1="1029.78" x2="15.5" y2="1029.78" gradientTransform="translate(0.25 -981.75)" gradientUnits="userSpaceOnUse"><stop offset="0" stop-color="#247ce6"/><stop offset="1" stop-color="#247ce6"/></linearGradient><linearGradient id="Безымянный_градиент_558" x1="-0.05" y1="1020.04" x2="95.95" y2="1020.04" gradientTransform="translate(0.25 -981.75)" gradientUnits="userSpaceOnUse"><stop offset="0.29" stop-color="#247ce6"/><stop offset="0.39" stop-color="#15a4ea"/><stop offset="0.51" stop-color="#00daf0"/><stop offset="0.69" stop-color="#0bdccc"/><stop offset="1" stop-color="#1ddf93"/></linearGradient><linearGradient id="Безымянный_градиент_553" x1="-0.05" y1="1039.47" x2="95.95" y2="1039.47" gradientTransform="translate(0.25 -981.75)" gradientUnits="userSpaceOnUse"><stop offset="0.24" stop-color="#247ce6"/><stop offset="0.29" stop-color="#2086e7"/><stop offset="0.38" stop-color="#16a0ea"/><stop offset="0.49" stop-color="#06c9ee"/><stop offset="0.53" stop-color="#00daf0"/><stop offset="0.91" stop-color="#18dea4"/><stop offset="1" stop-color="#1ddf93"/></linearGradient><linearGradient id="Безымянный_градиент_547" x1="66" y1="1029.78" x2="96" y2="1029.78" gradientTransform="translate(0.25 -981.75)" gradientUnits="userSpaceOnUse"><stop offset="0" stop-color="#00daf0"/><stop offset="0.07" stop-color="#06dbdc"/><stop offset="0.18" stop-color="#0fddc1"/><stop offset="0.31" stop-color="#15dead"/><stop offset="0.45" stop-color="#1ade9e"/><stop offset="0.61" stop-color="#1cdf96"/><stop offset="0.88" stop-color="#1ddf93"/></linearGradient></defs><g class="cls-1"><path class="cls-2" d="M69.1,95.6a6.51,6.51,0,0,0,3.9-.4l19.8-9.5a6,6,0,0,0,3.4-5.4V15.8a6,6,0,0,0-3.4-5.4L73.1.8A5.86,5.86,0,0,0,68.6.5,5.13,5.13,0,0,0,66.3,2L34.4,37.2,15.8,22l-1.6-1.4a3.65,3.65,0,0,0-3.6-.8.76.76,0,0,0-.5.2L2.8,23A4.24,4.24,0,0,0,.3,26.4V69.7a4.05,4.05,0,0,0,2.5,3.4l7.3,3c.2.1.3.1.5.2a4.19,4.19,0,0,0,3.6-.8l1.6-1.3L34.4,58.9,66.2,94A6.38,6.38,0,0,0,69.1,95.6Zm3.1-67.9L47.5,48,72.3,68.3V27.7Zm-60,6.5L24.7,48,12.2,61.7Z" transform="translate(0.8 0.81)"/></g><path class="cls-3" d="M14.1,75.4a4.06,4.06,0,0,1-4.1.7l-7.3-3A4,4,0,0,1,.2,69.4V26.7A4,4,0,0,1,2.7,23L10,20a4,4,0,0,1,4.1.6L15.7,22a2.23,2.23,0,0,0-3.1.5,2,2,0,0,0-.4,1.3V72.3a2.22,2.22,0,0,0,2.2,2.2,2,2,0,0,0,1.3-.4Z" transform="translate(0.8 0.81)"/><path class="cls-4" d="M2.7,73A4,4,0,0,1,.2,69.3V69a2.33,2.33,0,0,0,2.3,2.3,2.84,2.84,0,0,0,1.7-.7L66.2,2A6,6,0,0,1,73,.8l19.8,9.5a6,6,0,0,1,3.4,5.4V16a3.8,3.8,0,0,0-3.8-3.8,3.58,3.58,0,0,0-2.4.9L15.8,74l-1.6,1.4a4.06,4.06,0,0,1-4.1.7Z" transform="translate(0.8 0.81)"/><path class="cls-5" d="M2.7,23A4,4,0,0,0,.2,26.7V27a2.33,2.33,0,0,1,2.3-2.3,2.84,2.84,0,0,1,1.7.7L66.2,94A6,6,0,0,0,73,95.2l19.8-9.5a6,6,0,0,0,3.4-5.4V80a3.8,3.8,0,0,1-3.8,3.8,3.58,3.58,0,0,1-2.4-.9L15.8,22l-1.6-1.4a3.88,3.88,0,0,0-4.1-.6Z" transform="translate(0.8 0.81)"/><path class="cls-6" d="M73.1,95.2A6,6,0,0,1,66.3,94a3.5,3.5,0,0,0,5,0,3.32,3.32,0,0,0,1-2.5V4.5A3.54,3.54,0,0,0,68.8,1h0a3.47,3.47,0,0,0-2.5,1A5.93,5.93,0,0,1,73.1.9l19.8,9.5a6,6,0,0,1,3.4,5.4V80.3a6,6,0,0,1-3.4,5.4Z" transform="translate(0.8 0.81)"/></svg>

<?xml version="1.0" encoding="utf-8"?>
<!-- Generator: Adobe Illustrator 25.4.1, SVG Export Plug-In . SVG Version: 6.00 Build 0)  -->
<svg version="1.1" id="Слой_1" xmlns="http://www.w3.org/2000/svg" xmlns:xlink="http://www.w3.org/1999/xlink" x="0px" y="0px"
	 viewBox="0 0 96.5 96" style="enable-background:new 0 0 96.5 96;" xml:space="preserve">
<style type="text/css">
	.st0{opacity:0.25;}
	.st1{fill-rule:evenodd;clip-rule:evenodd;fill:url(#SVGID_1_);stroke:#1E1E1E;stroke-width:0.5;stroke-miterlimit:10;}
	
		.st2{fill:url(#SVGID_00000016779829142250171210000001014646351997611918_);stroke:#1E1E1E;stroke-width:0.5;stroke-miterlimit:10;}
	
		.st3{fill:url(#SVGID_00000005962314987885622360000001598986848370933664_);stroke:#1E1E1E;stroke-width:0.5;stroke-miterlimit:10;}
	
		.st4{fill:url(#SVGID_00000116233015733421758460000015054523589044999306_);stroke:#1E1E1E;stroke-width:0.5;stroke-miterlimit:10;}
	
		.st5{fill:url(#SVGID_00000158740408256847530080000016857012098212496026_);stroke:#1E1E1E;stroke-width:0.5;stroke-miterlimit:10;}
</style>
<g class="st0">
	
		<linearGradient id="SVGID_1_" gradientUnits="userSpaceOnUse" x1="0" y1="-931.999" x2="96" y2="-931.999" gradientTransform="matrix(1 0 0 -1 0.25 -884)">
		<stop  offset="0" style="stop-color:#00A0DB"/>
		<stop  offset="0.2" style="stop-color:#362983"/>
		<stop  offset="0.4" style="stop-color:#E4007D"/>
		<stop  offset="0.6" style="stop-color:#E31F21"/>
		<stop  offset="0.8" style="stop-color:#FFE900"/>
		<stop  offset="1" style="stop-color:#009447"/>
	</linearGradient>
	<path class="st1" d="M69.1,95.6c1.3,0.3,2.7,0.1,3.9-0.4l19.8-9.5c2.1-1,3.4-3.1,3.4-5.4V15.8c0-2.3-1.3-4.4-3.4-5.4L73.1,0.8
		c-1.4-0.7-3-0.8-4.5-0.3c-0.9,0.3-1.7,0.8-2.3,1.5L34.4,37.2L15.8,22l-1.6-1.4c-1-0.9-2.3-1.2-3.6-0.8c-0.2,0-0.4,0.1-0.5,0.2
		l-7.3,3c-1.4,0.6-2.3,1.9-2.5,3.4v43.3c0.1,1.5,1.1,2.8,2.5,3.4l7.3,3c0.2,0.1,0.3,0.1,0.5,0.2c1.3,0.3,2.6,0,3.6-0.8l1.6-1.3
		l18.6-15.3L66.2,94C67,94.8,68,95.3,69.1,95.6z M72.2,27.7L47.5,48l24.8,20.3V27.7z M12.2,34.2L24.7,48L12.2,61.7V34.2z"/>
</g>
<linearGradient id="SVGID_00000174599467088019497610000008439548717922411920_" gradientUnits="userSpaceOnUse" x1="-1.007677e-04" y1="50.225" x2="15.5" y2="50.225" gradientTransform="matrix(1 0 0 -1 0.25 98.25)">
	<stop  offset="0" style="stop-color:#00A0DB"/>
	<stop  offset="1" style="stop-color:#362983"/>
</linearGradient>
<path style="fill:url(#SVGID_00000174599467088019497610000008439548717922411920_);stroke:#1E1E1E;stroke-width:0.5;stroke-miterlimit:10;" d="
	M14.1,75.4c-1.1,1-2.7,1.2-4.1,0.7l-7.3-3c-1.5-0.6-2.5-2.1-2.5-3.7V26.7c0-1.6,1-3.1,2.5-3.7l7.3-3c1.4-0.6,3-0.3,4.1,0.6l1.6,1.4
	c-1-0.7-2.4-0.5-3.1,0.5c-0.3,0.4-0.4,0.8-0.4,1.3v48.5c0,1.2,1,2.2,2.2,2.2c0.5,0,0.9-0.1,1.3-0.4L14.1,75.4z"/>
<linearGradient id="SVGID_00000009582839318106838420000013946647523591538324_" gradientUnits="userSpaceOnUse" x1="0" y1="59.944" x2="96" y2="59.944" gradientTransform="matrix(1 0 0 -1 0.25 98.25)">
	<stop  offset="0" style="stop-color:#00A0DB"/>
	<stop  offset="6.900419e-02" style="stop-color:#1377BC"/>
	<stop  offset="0.138" style="stop-color:#2255A4"/>
	<stop  offset="0.2037" style="stop-color:#2D3D92"/>
	<stop  offset="0.2642" style="stop-color:#342E87"/>
	<stop  offset="0.3145" style="stop-color:#362983"/>
	<stop  offset="0.3338" style="stop-color:#512382"/>
	<stop  offset="0.3743" style="stop-color:#851680"/>
	<stop  offset="0.4124" style="stop-color:#AE0D7F"/>
	<stop  offset="0.4468" style="stop-color:#CC067E"/>
	<stop  offset="0.4764" style="stop-color:#DE027D"/>
	<stop  offset="0.4978" style="stop-color:#E4007D"/>
	<stop  offset="0.7207" style="stop-color:#E31F21"/>
</linearGradient>
<path style="fill:url(#SVGID_00000009582839318106838420000013946647523591538324_);stroke:#1E1E1E;stroke-width:0.5;stroke-miterlimit:10;" d="
	M2.7,73c-1.5-0.6-2.5-2.1-2.5-3.7V69c0,1.3,1.1,2.3,2.3,2.3c0.6,0,1.2-0.3,1.7-0.7L66.2,2c1.8-1.8,4.5-2.3,6.8-1.2l19.8,9.5
	c2.1,1,3.4,3.1,3.4,5.4V16c0-2.1-1.7-3.8-3.8-3.8c-0.9,0-1.7,0.3-2.4,0.9L15.8,74l-1.6,1.4c-1.1,1-2.7,1.2-4.1,0.7L2.7,73z"/>
<linearGradient id="SVGID_00000162343796795740318510000009155798234485910157_" gradientUnits="userSpaceOnUse" x1="0" y1="40.5394" x2="96" y2="40.5394" gradientTransform="matrix(1 0 0 -1 0.25 98.25)">
	<stop  offset="0" style="stop-color:#00A0DB"/>
	<stop  offset="0.2168" style="stop-color:#362983"/>
	<stop  offset="0.3827" style="stop-color:#462582"/>
	<stop  offset="0.5425" style="stop-color:#E4007D"/>
	<stop  offset="0.7123" style="stop-color:#E31F21"/>
</linearGradient>
<path style="fill:url(#SVGID_00000162343796795740318510000009155798234485910157_);stroke:#1E1E1E;stroke-width:0.5;stroke-miterlimit:10;" d="
	M2.7,23c-1.5,0.6-2.5,2.1-2.5,3.7V27c0-1.3,1.1-2.3,2.3-2.3c0.6,0,1.2,0.3,1.7,0.7l62,68.6c1.8,1.8,4.5,2.3,6.8,1.2l19.8-9.5
	c2.1-1,3.4-3.1,3.4-5.4V80c0,2.1-1.7,3.8-3.8,3.8c-0.9,0-1.7-0.3-2.4-0.9L15.8,22l-1.6-1.4c-1.2-1-2.8-1.2-4.1-0.6L2.7,23z"/>
<linearGradient id="SVGID_00000155865581632241837080000002849297708697450936_" gradientUnits="userSpaceOnUse" x1="66" y1="50.2533" x2="96" y2="50.2533" gradientTransform="matrix(1 0 0 -1 0.25 98.25)">
	<stop  offset="1.396648e-02" style="stop-color:#E31F21"/>
	<stop  offset="0.5" style="stop-color:#FFE900"/>
	<stop  offset="0.556" style="stop-color:#FBE801"/>
	<stop  offset="0.6167" style="stop-color:#EEE305"/>
	<stop  offset="0.6797" style="stop-color:#D8DC0B"/>
	<stop  offset="0.7443" style="stop-color:#B9D213"/>
	<stop  offset="0.8101" style="stop-color:#92C51E"/>
	<stop  offset="0.8769" style="stop-color:#62B52C"/>
	<stop  offset="0.9433" style="stop-color:#2BA23B"/>
	<stop  offset="0.9888" style="stop-color:#009447"/>
</linearGradient>
<path style="fill:url(#SVGID_00000155865581632241837080000002849297708697450936_);stroke:#1E1E1E;stroke-width:0.5;stroke-miterlimit:10;" d="
	M73.1,95.2c-2.3,1.1-5,0.6-6.8-1.2c1.4,1.4,3.6,1.4,5,0c0.7-0.7,1-1.5,1-2.5v-87c0-1.9-1.6-3.5-3.5-3.5c0,0,0,0,0,0
	c-0.9,0-1.8,0.3-2.5,1c1.8-1.8,4.5-2.2,6.8-1.1l19.8,9.5c2.1,1,3.4,3.1,3.4,5.4v64.5c0,2.3-1.3,4.4-3.4,5.4L73.1,95.2z"/>
</svg>
